proprietary/assets/icons/op-kantoor/document-met-ontevreden-gezicht.svg

<svg height="64" viewBox="0 0 64 64" width="64" xmlns="http://www.w3.org/2000/svg"><path d="m0 0h64v64h-64z" fill="none"/><path d="m51.4141 22.4141-14.8282-14.8282c-.375-.375-.8838-.5859-1.4145-.5859h-21.1714c-1.1045 0-2 .8955-2 2v46c0 1.1045.8955 2 2 2h36c1.1001 0 2-.9004 2-2v-31.1714c0-.5307-.2109-1.0395-.5859-1.4145zm-1.2657 1.9453-3.1484.9324v26.7082h-30v-40h16.7085l.9316-3.1349c.109-.3406.3599-.231.3599-.231v14.3659c0 .5522.4478 1 1 1h14.3669s.1226.2504-.2185.3594z"/><path d="m32 37.0924c-2.9663 0-5.5393 2.0013-6.8182 4.1382-.2592.4331.1926.9424.6416.7119 1.6573-.851 3.8155-1.2935 6.1766-1.2935s4.5192.4425 6.1766 1.2935c.449.2305.9008-.2788.6416-.7119-1.2789-2.1368-3.8519-4.1382-6.8182-4.1382z"/><circle cx="26.5" cy="30.5" r="2.5"/><circle cx="37.5" cy="30.5" r="2.5"/></svg>

<?xml version="1.0" encoding="utf-8"?>
<!-- Generator: Adobe Illustrator 17.1.0, SVG Export Plug-In . SVG Version: 6.00 Build 0)  -->
<svg version="1.2" baseProfile="tiny" xmlns="http://www.w3.org/2000/svg" xmlns:xlink="http://www.w3.org/1999/xlink" x="0px"
	 y="0px" width="64px" height="64px" viewBox="0 0 64 64" xml:space="preserve">
<g id="Box">
	<rect fill="none" width="64" height="64"/>
</g>
<g id="Icon">
	<g>
		<path d="M51.4141,22.4141L36.5859,7.5859C36.2109,7.2109,35.7021,7,35.1714,7H14c-1.1045,0-2,0.8955-2,2v46c0,1.1045,0.8955,2,2,2
			h36c1.1001,0,2-0.9004,2-2V23.8286C52,23.2979,51.7891,22.7891,51.4141,22.4141z M50.1484,24.3594L47,25.2918V52H17V12h16.7085
			l0.9316-3.1349C34.7491,8.5245,35,8.6341,35,8.6341V23c0,0.5522,0.4478,1,1,1h14.3669C50.3669,24,50.4895,24.2504,50.1484,24.3594
			z"/>
		<path d="M32,37.0924c-2.9663,0-5.5393,2.0013-6.8182,4.1382c-0.2592,0.4331,0.1926,0.9424,0.6416,0.7119
			c1.6573-0.851,3.8155-1.2935,6.1766-1.2935s4.5192,0.4425,6.1766,1.2935c0.449,0.2305,0.9008-0.2788,0.6416-0.7119
			C37.5393,39.0938,34.9663,37.0924,32,37.0924z"/>
		<circle cx="26.5" cy="30.5" r="2.5"/>
		<circle cx="37.5" cy="30.5" r="2.5"/>
	</g>
</g>
</svg>
